dist/assets/img/svg/logo.svg

<svg width="54" height="45" viewBox="0 0 54 45" xmlns="http://www.w3.org/2000/svg">

<path d="M45.3872 13.6202C43.5179 16.5282 40.5226 17.6255 36.8718 18.9338C33.3475 20.193 27.0004 20.1388 27.0004 20.1388C28.5576 20.6745 32.0644 21.4911 35.9487 21.3782C39.8589 21.2644 41.8343 20.3771 44.3598 20.1421C47.4346 19.8553 49.5392 22.2996 48.6429 24.2231C50.4586 21.7083 51.0595 19.1826 50.9136 16.1322C51.2368 16.3451 51.6152 16.4584 52.0019 16.4579C52.3379 16.458 52.6684 16.3731 52.963 16.2112C53.2576 16.0493 53.5066 15.8155 53.6871 15.5315C53.8676 15.2476 53.9738 14.9225 53.9957 14.5865C54.0177 14.2505 53.9547 13.9144 53.8127 13.6092C53.6707 13.3041 53.4542 13.0398 53.1832 12.8407C52.9122 12.6417 52.5955 12.5144 52.2624 12.4706C51.9293 12.4267 51.5906 12.4678 51.2776 12.59C50.9645 12.7122 50.6873 12.9116 50.4715 13.1696C49.8567 11.0638 48.5247 8.8683 46.529 6.83005C47.3727 8.78133 46.5096 11.8808 45.3853 13.6239" />
<path d="M34.2945 2.00212C34.2943 2.27145 34.3487 2.53802 34.4544 2.78565C34.5601 3.03329 34.7148 3.25682 34.9093 3.44268C30.5589 4.60013 27.9295 8.31192 27 10.1688C27.8871 9.1659 31.8572 7.1591 33.4394 10.1688C34.0588 11.3513 33.8561 13.0992 32.7345 14.5601C31.6379 15.9886 30.3133 17.0721 29.7493 17.5291C28.7247 18.3618 27.473 19.5088 27.0004 20.1388C30.0373 19.2071 33.5228 17.8067 36.4139 14.8534C38.0404 13.188 38.5841 11.9945 39.2302 9.77395C39.5829 8.55081 40.3481 7.435 41.4872 6.8225C42.953 6.03237 44.873 5.9881 46.529 6.83005C45.3881 5.55139 42.2025 3.20675 37.9629 3.0948C38.1323 2.83392 38.2386 2.53701 38.2734 2.2277C38.3082 1.91839 38.2704 1.60521 38.1632 1.31308C38.056 1.02095 37.8823 0.75792 37.6558 0.544928C37.4294 0.331937 37.1564 0.174858 36.8587 0.0861873C36.5611 -0.00248366 36.2468 -0.020299 35.9411 0.0341586C35.6353 0.0886161 35.3465 0.213844 35.0975 0.399879C34.8485 0.585914 34.6463 0.827621 34.5069 1.10577C34.3675 1.38393 34.2948 1.69085 34.2945 2.00212Z" />
<path d="M32.0995 25.9708C33.5995 27.0755 34.542 27.7121 35.6303 29.0277C37.6047 31.4092 36.9576 34.7715 35.3358 36.2241C36.6521 35.2905 38.849 33.6714 41.1133 31.82C41.1133 31.8376 41.1133 31.8524 41.1133 31.8691C41.1128 32.2525 41.2223 32.628 41.4287 32.9508C41.6351 33.2737 41.9298 33.5302 42.2776 33.6898C42.6254 33.8494 43.0117 33.9055 43.3904 33.8512C43.7691 33.7969 44.1243 33.6347 44.4135 33.3837C44.7028 33.1328 44.9139 32.8038 45.0219 32.436C45.1298 32.0681 45.1299 31.6769 45.0222 31.309C44.9145 30.941 44.7035 30.6119 44.4143 30.3608C44.1252 30.1097 43.7702 29.9473 43.3915 29.8928C45.6207 27.9304 47.6441 25.8876 48.6429 24.2231C47.4133 25.4712 44.4327 26.1031 42.5773 26.0624C39.5026 25.9902 37.7543 25.3778 34.4441 24.2231C31.7339 23.2821 28.0878 21.6192 27.0004 20.1388C27.5542 21.6636 29.0653 23.7364 32.0995 25.9653"/>
<path d="M25.4109 29.5248C25.205 31.1735 25.1847 33.7502 24.0262 35.226C22.9426 36.6073 19.9508 36.8541 18.6576 36.2241C20.7992 37.6618 23.7696 39.3062 26.1096 40.6172C25.6986 40.8072 25.3641 41.1315 25.161 41.537C24.9579 41.9424 24.8983 42.405 24.9918 42.8489C25.0853 43.2928 25.3264 43.6917 25.6757 43.9803C26.025 44.2689 26.4617 44.43 26.9143 44.4372C27.3668 44.4445 27.8085 44.2975 28.1668 44.0203C28.5251 43.743 28.7788 43.352 28.8865 42.9114C28.9941 42.4707 28.9492 42.0064 28.7591 41.5947C28.5691 41.1829 28.2452 40.8481 27.8404 40.645C30.185 39.3284 33.1813 37.6702 35.3358 36.2241C34.0435 36.8542 31.0546 36.6073 29.9709 35.226C28.8133 33.7502 28.7893 31.1735 28.5862 29.5248C28.1958 26.3975 27.0004 20.1388 27.0004 20.1388C27.0004 20.1388 25.8041 26.3957 25.4109 29.5229" />
<path d="M15.7112 2.0027C15.7098 2.39363 15.8234 2.77629 16.0379 3.10279C11.7918 3.21474 8.60993 5.55184 7.46623 6.83049C9.12223 5.98854 11.0478 6.04036 12.5118 6.83049C13.6508 7.44299 14.4179 8.5588 14.7705 9.78194C15.4149 11.9951 15.9585 13.1886 17.585 14.8503C20.4742 17.8036 23.9616 19.2071 27.0004 20.1388C26.5287 19.5088 25.2733 18.3541 24.2496 17.526C23.6856 17.069 22.3592 15.9855 21.2625 14.557C20.141 13.0961 19.9379 11.3474 20.5601 10.1659C22.1413 7.15617 26.1111 9.1659 27 10.1688C26.0705 8.31192 23.4382 4.59701 19.0896 3.43957C19.3272 3.21029 19.5043 2.92556 19.6051 2.61086C19.706 2.29616 19.7274 1.9613 19.6675 1.63627C19.6076 1.31123 19.4683 1.00614 19.2619 0.748311C19.0556 0.490481 18.7887 0.287949 18.4851 0.158839C18.1815 0.0297288 17.8508 -0.0219313 17.5224 0.00848227C17.194 0.0388958 16.8783 0.150434 16.6035 0.333115C16.3286 0.515796 16.1033 0.763921 15.9476 1.05529C15.7918 1.34665 15.7106 1.67217 15.7112 2.0027Z" />
<path d="M3.52561 13.1658C3.30975 12.9082 3.03257 12.7093 2.71969 12.5874C2.40681 12.4656 2.06834 12.4248 1.73556 12.4688C1.40278 12.5128 1.08643 12.6401 0.815768 12.8391C0.545103 13.0381 0.328856 13.3022 0.187017 13.6072C0.0451784 13.9121 -0.0176731 14.2479 0.00427226 14.5837C0.0262176 14.9194 0.132252 15.2441 0.312573 15.5279C0.492893 15.8117 0.74168 16.0453 1.03593 16.2072C1.33019 16.3691 1.66041 16.454 1.99607 16.4541C2.38246 16.4541 2.76042 16.3409 3.08346 16.1284C2.93576 19.1816 3.53392 21.7084 5.35515 24.2231C4.45515 22.2996 6.56069 19.8515 9.63731 20.1383C12.1638 20.3733 14.1336 21.2606 18.0465 21.3744C21.9299 21.4873 25.4404 20.6745 27.0004 20.1388C27.0004 20.1388 20.6515 20.1892 17.1299 18.93C13.4736 17.6254 10.4838 16.5244 8.61176 13.6201C7.48746 11.877 6.62254 8.78178 7.46623 6.83049C5.47054 8.86597 4.14499 11.0601 3.52746 13.1658" />
<path d="M19.5512 24.2304C16.2456 25.3851 14.4918 25.9902 11.4179 26.0624C9.56069 26.1031 6.58192 25.4713 5.35515 24.2231C6.35115 25.8885 8.37638 27.9304 10.6038 29.8928C10.2249 29.9474 9.86979 30.1101 9.58063 30.3614C9.29148 30.6127 9.08052 30.9421 8.9729 31.3102C8.86528 31.6784 8.86555 32.0698 8.97366 32.4377C9.08177 32.8057 9.29317 33.1348 9.58266 33.3857C9.87215 33.6367 10.2275 33.7989 10.6064 33.853C10.9853 33.9071 11.3718 33.8509 11.7197 33.6911C12.0676 33.5312 12.3623 33.2745 12.5687 32.9514C12.7751 32.6284 12.8845 32.2527 12.8838 31.869C12.8831 31.8526 12.8816 31.8363 12.8791 31.82C15.1472 33.6704 17.3413 35.2905 18.6576 36.2241C17.0358 34.7715 16.3905 31.4129 18.365 29.0277C19.4551 27.712 20.3958 27.0736 21.8958 25.9745C24.9318 23.7419 26.4401 21.6599 27.0004 20.1388C25.9102 21.6192 22.2632 23.2858 19.5512 24.2304Z" />

</svg>

<svg width="54" height="45" xmlns="http://www.w3.org/2000/svg"><path d="M45.387 13.62c-1.87 2.908-4.864 4.005-8.515 5.314C33.347 20.193 27 20.139 27 20.139c1.558.535 5.064 1.352 8.949 1.24 3.91-.115 5.885-1.002 8.41-1.237 3.076-.287 5.18 2.158 4.284 4.081 1.816-2.515 2.416-5.04 2.27-8.09a1.994 1.994 0 002.773-.6 2.005 2.005 0 00-1.424-3.062 1.992 1.992 0 00-1.79.699c-.615-2.106-1.947-4.302-3.943-6.34.844 1.951-.02 5.05-1.144 6.794"/><path d="M34.294 2.002a1.992 1.992 0 00.615 1.44C30.56 4.6 27.93 8.313 27 10.17c.887-1.003 4.857-3.01 6.44 0 .619 1.182.416 2.93-.706 4.391-1.096 1.429-2.42 2.512-2.985 2.97-1.024.832-2.276 1.979-2.749 2.609 3.037-.932 6.523-2.332 9.414-5.286 1.626-1.665 2.17-2.858 2.816-5.08.353-1.222 1.118-2.338 2.257-2.95 1.466-.79 3.386-.835 5.042.007-1.14-1.279-4.327-3.623-8.566-3.735a2.003 2.003 0 00-1.104-3.01 1.991 1.991 0 00-2.352 1.02c-.14.278-.212.585-.212.896z"/><path d="M32.1 25.97c1.5 1.106 2.442 1.742 3.53 3.058 1.975 2.381 1.328 5.744-.294 7.196a111.303 111.303 0 005.777-4.404v.05a2.003 2.003 0 001.165 1.82 1.99 1.99 0 002.744-1.254 2.004 2.004 0 00-.608-2.075 1.992 1.992 0 00-1.023-.468c2.23-1.963 4.253-4.005 5.252-5.67-1.23 1.248-4.21 1.88-6.066 1.84-3.074-.073-4.823-.685-8.133-1.84-2.71-.94-6.356-2.604-7.444-4.084.554 1.525 2.065 3.597 5.1 5.826"/><path d="M25.41 29.525c-.205 1.649-.225 4.225-1.384 5.701-1.083 1.381-4.075 1.628-5.368.998 2.141 1.438 5.112 3.082 7.452 4.393a2 2 0 00-1.118 2.232 2.003 2.003 0 001.922 1.588 1.994 1.994 0 001.973-1.526 2.006 2.006 0 00-1.047-2.266c2.345-1.317 5.341-2.975 7.496-4.42-1.292.63-4.281.382-5.365-.999-1.158-1.476-1.182-4.052-1.385-5.701-.39-3.127-1.586-9.386-1.586-9.386s-1.196 6.257-1.59 9.384"/><path d="M15.711 2.003c-.001.39.112.773.327 1.1-4.246.112-7.428 2.449-8.572 3.727 1.656-.841 3.582-.79 5.046 0 1.139.613 1.906 1.729 2.258 2.952.645 2.213 1.189 3.407 2.815 5.068 2.89 2.954 6.377 4.357 9.415 5.289-.471-.63-1.727-1.785-2.75-2.613-.564-.457-1.89-1.54-2.988-2.969-1.121-1.46-1.324-3.21-.702-4.391 1.581-3.01 5.551-1 6.44.003-.93-1.857-3.562-5.572-7.91-6.73a1.999 1.999 0 00.172-2.69 1.995 1.995 0 00-2.659-.416 1.997 1.997 0 00-.892 1.67z"/><path d="M3.526 13.166a1.998 1.998 0 00-1.79-.697 1.994 1.994 0 00-1.549 1.138 2.005 2.005 0 00.849 2.6 1.979 1.979 0 002.048-.079c-.148 3.054.45 5.58 2.271 8.095-.9-1.923 1.206-4.371 4.282-4.085 2.527.235 4.497 1.123 8.41 1.236 3.883.113 7.393-.7 8.953-1.235 0 0-6.349.05-9.87-1.209-3.656-1.305-6.646-2.406-8.518-5.31-1.125-1.743-1.99-4.838-1.146-6.79-1.995 2.036-3.321 4.23-3.939 6.336"/><path d="M19.551 24.23c-3.305 1.155-5.06 1.76-8.133 1.832-1.857.041-4.836-.59-6.063-1.839.996 1.666 3.021 3.707 5.249 5.67a1.993 1.993 0 00-1.631 1.417 2.005 2.005 0 00.61 2.076 1.993 1.993 0 002.986-.435 2.01 2.01 0 00.315-1.082.449.449 0 00-.005-.049c2.268 1.85 4.462 3.47 5.779 4.404-1.622-1.452-2.268-4.811-.293-7.196 1.09-1.316 2.03-1.954 3.53-3.053 3.037-2.233 4.545-4.315 5.105-5.836-1.09 1.48-4.737 3.147-7.449 4.091z"/></svg>
